X: 26
T: The Wives of Kilwinnon
%R: reel, hornpipe
B: "Scots Reel & Country Dances for the Year 1769", R.Bremner, ed. p.111 #2
F: http://digital.nls.uk/special-collections-of-printed-music/pageturner.cfm?id=104993891
Z: 2016 John Chambers <jc:trillian.mit.edu>
M: C|
L: 1/8
K: Ador
% - - - - - - - - - - - - - - - - - - - - - - - - - - - - -
V: 1
|:\
g>e e/e/e d>BGB | ge e/e/e g>aba |\
Tg>e e/e/e d>BGB | cgBg A/A/A A2 :|
|:\
c>def gdBG | c>def g>aTge |\
(b/a/g) (a/g/e) (g/e/d) (e/d/B) | c>Aec A/A/A A2 :|
% - - - - - - - - - - - - - - - - - - - - - - - - - - - - -
V: 2 clef=bass middle=d
|: a2a2 g2g2 | a2a2 a2a2 | a2a2 g2g2 | a2e2 A2A2 :|
|: c2c2 g2g2 | c'2c'2 c'2c'2 | b2a2 g2g2 | a2e2 A2A2 :|
% - - - - - - - - - - Dance description - - - - - - - - - -
%%begintext align
%% Cast of two Cu. .|
%% cast up again :|
%% lead down one Cu .|.
%% up again and cast off :|:
%% set corners and turn .|
%% lead outsides :|
%%endtext
%%sep 2 2 400


